X:696
T:Planxty Sir Festus Burke
R:
C:O'Carolan
B:O'Neill's 696
D:
Z: 1997 by John Chambers <jc@trillian.mit.edu>
N:"Spirited"
N:O'Neill's has a fermata over the closing double bar.
M:2/4
L:1/16
K:D
d2A2 d2e2|gf2ed d2f2|g2fe a2fd|c2B2 A2A2|
|BA.G2 .G2.B2|.G2.B2 cd.e2|.dcBA B2c2|d4 d2z2|
|.a2f2 d2.a2|.agfe d2a2|.b2g2 e2.b2|.bagf e2z2|
|.agfe .fgaf|.edcB .cdec|.dBGB .GBdB|.ecAc .Acec|
|.dcBA .GFED|.CB,CD .EFGE|""F2D2 D2F2|GA4 A2z2|
|B2G2 G2B2|de4 de2z2|.dcBA A2a2|ga.b2 fg.a2|
|g2B2 .cdec|d4 d2z2||FAdA FAFD|FAdB A2FA|
|B2G2 dcdB|c2A2 edec|d2a2 e2g2|gfef g2e2|
|d4 z2d2|G2GB G2GB|.A2Aa .A2Aa|.G2Gg .G2Gg|
|gfef gfed|g.a2ef gfed|a.b2ef gfed|c2A2 A2A2|
|Bcdc BAGF|AGFE GFED|A2A,2 CDEC|D4 D2z2|]
